X: 39567
T: Teatime With Seamus
R: reel
M: 4/4
K: Dmajor
A2BA dABA|efed BAFE|F2AF BFAB|B/B/ded fedB|
A2BA dABA|efed BAFE|FABA Bded|1 efed B2 dB:|2 efed d2e2||
f2bf afed|efed BAFE|F2AF BFAB|B/B/ded fede|
f2bf afed|efed BAFE|FABA Bded|1 efed B2 de:|2 efed d4||

